_files/assets/icon-settings.svg

<?xml version="1.0" encoding="UTF-8" standalone="no"?>
<svg width="23px" height="22px" viewBox="0 0 23 22" version="1.1" xmlns="http://www.w3.org/2000/svg" xmlns:xlink="http://www.w3.org/1999/xlink">
    <!-- Generator: Sketch 45.1 (43504) - http://www.bohemiancoding.com/sketch -->
    <title>slider-settings-24-px</title>
    <desc>Created with Sketch.</desc>
    <defs></defs>
    <g id="Web" stroke="none" stroke-width="1" fill="none" fill-rule="evenodd">
        <g id="Post" transform="translate(-491.000000, -1782.000000)" fill-rule="nonzero" fill="#4A90E2">
            <g id="Group" transform="translate(315.000000, 1719.000000)">
                <g id="Group-3" transform="translate(142.000000, 29.000000)">
                    <g id="Group-2-Copy">
                        <g id="slider-settings-24-px" transform="translate(34.000000, 34.000000)">
                            <path d="M1,4 L4.5,4 L4.5,5.5 C4.5,5.77614237 4.72385763,6 5,6 L12,6 C12.2761424,6 12.5,5.77614237 12.5,5.5 L12.5,4 L22,4 C22.5522847,4 23,3.55228475 23,3 C23,2.44771525 22.5522847,2 22,2 L12.5,2 L12.5,0.5 C12.5,0.223857625 12.2761424,1.69088438e-17 12,0 L5,0 C4.72385763,-1.69088438e-17 4.5,0.223857625 4.5,0.5 L4.5,2 L1,2 C0.44771525,2 6.76353751e-17,2.44771525 0,3 C-6.76353751e-17,3.55228475 0.44771525,4 1,4 Z" id="Shape"></path>
                            <path d="M22,10 L19,10 L19,8.5 C19,8.22385763 18.7761424,8 18.5,8 L11.5,8 C11.2238576,8 11,8.22385763 11,8.5 L11,10 L1,10 C0.44771525,10 6.76353751e-17,10.4477153 0,11 C-6.76353751e-17,11.5522847 0.44771525,12 1,12 L11,12 L11,13.5 C11,13.7761424 11.2238576,14 11.5,14 L18.5,14 C18.7761424,14 19,13.7761424 19,13.5 L19,12 L22,12 C22.5522847,12 23,11.5522847 23,11 C23,10.4477153 22.5522847,10 22,10 Z" id="Shape"></path>
                            <path d="M22,18 L12.5,18 L12.5,16.5 C12.5,16.2238576 12.2761424,16 12,16 L5,16 C4.72385763,16 4.5,16.2238576 4.5,16.5 L4.5,18 L1,18 C0.44771525,18 6.76353751e-17,18.4477153 0,19 C-6.76353751e-17,19.5522847 0.44771525,20 1,20 L4.5,20 L4.5,21.5 C4.5,21.7761424 4.72385763,22 5,22 L12,22 C12.2761424,22 12.5,21.7761424 12.5,21.5 L12.5,20 L22,20 C22.5522847,20 23,19.5522847 23,19 C23,18.4477153 22.5522847,18 22,18 Z" id="Shape"></path>
                        </g>
                    </g>
                </g>
            </g>
        </g>
    </g>
</svg>

<svg xmlns="http://www.w3.org/2000/svg" width="23" height="22">
  <path fill="#4A90E2" d="M1 4h3.5v1.5c0 .276.224.5.5.5h7c.276 0 .5-.224.5-.5V4H22c.552 0 1-.448 1-1s-.448-1-1-1h-9.5V.5c0-.276-.224-.5-.5-.5H5c-.276 0-.5.224-.5.5V2H1c-.552 0-1 .448-1 1s.448 1 1 1zm21 6h-3V8.5c0-.276-.224-.5-.5-.5h-7c-.276 0-.5.224-.5.5V10H1c-.552 0-1 .448-1 1s.448 1 1 1h10v1.5c0 .276.224.5.5.5h7c.276 0 .5-.224.5-.5V12h3c.552 0 1-.448 1-1s-.448-1-1-1zm0 8h-9.5v-1.5c0-.276-.224-.5-.5-.5H5c-.276 0-.5.224-.5.5V18H1c-.552 0-1 .448-1 1s.448 1 1 1h3.5v1.5c0 .276.224.5.5.5h7c.276 0 .5-.224.5-.5V20H22c.552 0 1-.448 1-1s-.448-1-1-1z"/>
</svg>
